X:506
T:Vicar and Moses. RH.506
R:song
S:Rev.R.Harrison’s MS,c1815,Cumbria
O:England
A:Temple Sowerby,Cumbria
Z:vmp.Simon Wilson.
M:6/8
L:1/8
Q:3/8=80
K:G
dd|dBc d2d|dBd G2d|\
g>ag b>ab|g3 zg>a|b>ag aad|!
e>de fga|gfe dgB|\
A3 zB>c|d>ed dBd|G3z|]

